public/avatar/body/180.svg

<svg xmlns:xlink="http://www.w3.org/1999/xlink" height="82" width="84.85" xmlns="http://www.w3.org/2000/svg"><g transform="translate(37.4 42.25)"><use height="38" transform="translate(-11.95 -17.45)" width="32.05" xlink:href="#a"/><use height="38.95" transform="translate(-12.45 -17.95)" width="33.05" xlink:href="#b"/><use height="26.5" transform="translate(-11.05 -2.85)" width="36.1" xlink:href="#c"/></g><defs><path d="M27.35 7.4q2.15 4.15 3.55 8.75 1.45 4.7 1.15 9.5-.35 4.95-4.2 8.1-3.8 3.2-8.75 4.05l-2.6.2q-3.6 0-7.05-1.15-4.65-1.6-7.1-5.5Q-.2 27.4.05 23q.2-4.4 2-9.3Q3.85 8.75 7 5.05 10.1 1.3 14.7.1l1.8-.1q1.9.05 3.7.8 4.75 2.05 7.15 6.6" fill="#f5ad6c" fill-rule="evenodd" transform="translate(-.05)" id="d"/><path d="M27.35 7.4Q24.95 2.85 20.2.8 17.55-.3 14.7.1 10.1 1.3 7 5.05q-3.15 3.7-4.95 8.65-1.8 4.9-2 9.3-.25 4.4 2.3 8.35 2.45 3.9 7.1 5.5 4.65 1.55 9.65.95 4.95-.85 8.75-4.05 3.85-3.15 4.2-8.1.3-4.8-1.15-9.5-1.4-4.6-3.55-8.75Z" fill="none" stroke="#170001" stroke-linecap="round" stroke-linejoin="round" transform="translate(.45 .5)" id="e"/><use height="38" width="32.05" xlink:href="#d" id="a"/><use height="38.95" width="33.05" xlink:href="#e" id="b"/><g id="c" fill-rule="evenodd"><path d="m-.8 13.5 9.35-3.15.9.65-.35.6-.8.9q-1.2 1.2-2.8 1.75l-.8-.4q-.4.6-1.15.75-1 .15-1.8-.4l.1-.25q-.1-.55-.75-.35l-1.9-.1" fill="#f5ad6c" transform="translate(11.05 2.85)"/><path d="m24.45 14.95.6-.1v.45q.05 1.7-.9 3.2-1 1.55-3 1.65l-2-.3-.6-.75q.05 1.1-.65 2.05l-.45.7L17 22h-.05l-.65.35-3.3.55-3.85.45-3.95.25-2.05.05-3.95-.15-3.1-.2-3.35-.65q-1.05-.1-1.75-.75-1.15-1-1.25-2.6l-.05-2.5-.55-.35q-.35-.8-.05-1.6l.5-.15-.2.35q-.05.7.65 1.2l.35 1.7.6 2.1.8 1.35q1.15 1.25 2.95.85l2 .3 2 .15 2.1.2 3.65-.1 2.9-.05 2.75-.2 3.85-.6q1.5 0 2.55-.55 1.05-.6 1.05-1.45l.25-.95.3-3.1v-.35l.6 2.25q.2.75.75 1.15l2.45.5 1.3-1.05q.9-1.35 1.25-2.95l-.6 1.1v-.1l.55-1.5" fill="#170a00" transform="translate(11.05 2.85)"/><path d="m23.55 16.9.35-.45v.1l-.35.35" fill="#471f01" transform="translate(11.05 2.85)"/><path d="M19.35 16.3q0 .6.6 1.05.6.45 1.45.45l1.5-.5.65-.4.35-.35.6-1.1q-.35 1.6-1.25 2.95l-1.3 1.05-2.45-.5q-.55-.4-.75-1.15l-.6-2.25.2-.6 1 1.35" fill="#ff6a00" transform="translate(11.05 2.85)"/><path d="M-6.95 18.35-6 19l-1.15.1.2-.75" fill="#ff6c03" transform="translate(11.05 2.85)"/><path d="M-6.15 15.15-.8 13.5l1.9.1q-2.7.35-4.8 1.3l2.2-.05q1.7.05 3.25-.65.8.55 1.8.4.75-.15 1.15-.75l.8.4-1.25.5Q2 15.5 0 15.3l.3.35-6.45-.5m-.05 0-.35-.05 1.4-.45-1.05.5m1.35 3.35 3.85.3-2.95.15-.9-.45" fill="#ff6b01" transform="translate(11.05 2.85)"/><path d="M18.15 15.55v.35l-.05-.3.05-.05M14 21.95l-3.85.6-2.75.2-2.9.05-3.65.1-2.1-.2-2-.15-2-.3-.75-.35q-1.7-.9-1.15-2.8L-6 19l-.95-.65 2.1.15.9.45L-1 18.8l7.35.3 1.1 1.5q1.4 1.55 3.45 1.05l.4-.1.35-.05.05-.05-.15-.1-.8-2.4 1.2-.15q.8 1.65-.05 3.4l2.1-.25m-18.8-2.7.7 2.4h1.65l-.65-.75.15-.9h3.3l-2.5-.65-.5-.1H-4.8" fill="#fc6900" transform="translate(11.05 2.85)"/><path d="m19.1-2-.15-.75 1.25-.1.65 2.75.35 1.25 3.25 7.8q.5 1.25.55 2.65l.05 3.25-.6.1q.45-1.7.1-3.35l-.9-3.8-.25-.55.25.55.9 3.8q.35 1.65-.1 3.35l-.55 1.5-.35.45-.65.4-1.5.5-.45-.15q-1.1-.4-1.6-1.35l-1-1.35-.3-1.1-3.05.95-.4-.35-1.6-.4q-.55.25-1.05.6-.65.35-1.25.85l-6.15.3-4.25-.15-.3-.35q2 .2 4.25-.55l1.25-.5q1.6-.55 2.8-1.75l.8-.9.35-.6-.9-.65L-.8 13.5l-5.35 1.65 1.2-.55 3.05-1.1 3.1-1.15 2.85-1.2 1.3-.6.95-.4.55-.3 2.1-1 1.9-1 1.8-1 3.15-2.2 2.6-2.2L20.3.6l-.05-.8-.5-1.85v-.2L19.1-2m1.8 4.7q-.45-1-.6-2.1.15 1.1.6 2.1l-.35-.6-.75.8-1.2 1.9 2.55-1.55.05-.05-.3-.5m1.55 2.75q-1.1-1.2-2.55-.4-1.7.95-1.85 2.7-.1 1.1.1 2.25l.5 1.95q.4 1.15 1.35 2.1l.95 1 .2.1.4.05.35-.25.25-.1q.65-.95.9-2.05l.65-2.75q.3-1.55-.3-2.8l-.95-1.8-.75-1.3-.55-.9.55.9.75 1.3.95 1.8q.6 1.25.3 2.8l-.65 2.75q-.25 1.1-.9 2.05l-.25.1-.35.25-.4-.05-.2-.1-.95-1q-.95-.95-1.35-2.1l-.5-1.95q-.2-1.15-.1-2.25.15-1.75 1.85-2.7 1.45-.8 2.55.4m-4.3 10.45-.3 3.1v-.25l-.35-.95-.25-.45-.75-1.15h.05l1.55-.6.05.3m-.55 4.05q0 .85-1.05 1.45-1.05.55-2.55.55l-2.1.25q.85-1.75.05-3.4l-1.2.15.2-1.65 3.4-.5q1.6 1.6.4 3.5l.75.15q1.15.2 2.1-.5m-22.85 2.3q-1.8.4-2.95-.85l-.8-1.35-.6-2.1-.35-1.7 2.85.6 2.2.25 2.05.15 3.9.25 3.6.05 3.2-.05-.25.7-.1.9 1.45 1.45q.8.75 1.95 1.1-2.05.5-3.45-1.05l-1.1-1.5-7.35-.3-3.85-.3-2.1-.15-.2.75Q-7.7 21-6 21.9l.75.35M13.5 11.7l-.3 1.2-.4.65 3.15.2.9-7.35-3.55 2.5.2 2.8m-1.95 9.65.15.1-.05.05-.1-.15" fill="#bc4e00" transform="translate(11.05 2.85)"/><path d="M19.35 16.3q.5.95 1.6 1.35l.45.15q-.85 0-1.45-.45t-.6-1.05" fill="#bc5908" transform="translate(11.05 2.85)"/><path d="m19.75-2.05.5 1.85.05.8-1.9 1.85-2.6 2.2-3.15 2.2-1.8 1-1.9 1-2.1 1 .75-.4 1.85-1q.45-.7.15-1.7L9.25 5.6l1.25-.75 2.45-1.7 2.5-1.8 2.5-1.95 1.8-1.45M-5.6 13.1l.7-.25 2.45-.95L.7 10.4 4 8.8l-.1 2.35h.15l-2.85 1.2-3.1 1.15-3.05 1.1-.2.05-1.4.45-3.8-.45h.05l2.65-.8 2.05-.75m22.65-9.75L16.6 1.8l-3.4 2.55-.3 2 1.1-.6q1.75-.95 3.05-2.4M6.3 10.1v.05l-.95.4.95-.45" fill="#e3ab00" transform="translate(11.05 2.85)"/><path d="m19.1-2 .65-.25v.2L17.95-.6l-2.5 1.95-2.5 1.8-2.45 1.7-1.25.75L7.4 6.75l-1.25.75L4 8.8.7 10.4l-3.15 1.5-2.45.95-.7.25-.75.25 2.45-1 2.6-1.3 2.8-1.6L4.6 7.7l3.35-2L9.7 4.6l1.75-1.15L13.3 2.2 15.2.85 17.15-.5 19.1-2" fill="#705103" transform="translate(11.05 2.85)"/><path d="m20.9 2.7.3.5-.05.05L18.6 4.8l1.2-1.9.75-.8.35.6" fill="#f67800" transform="translate(11.05 2.85)"/><path d="M17.05 3.35Q15.75 4.8 14 5.75l-1.1.6.3-2 3.4-2.55.45 1.55" fill="#ad7204" transform="translate(11.05 2.85)"/><path d="m13.5 11.7-.2-2.8 3.55-2.5-.9 7.35-3.15-.2.4-.65.3-1.2" fill="#783200" transform="translate(11.05 2.85)"/><path d="m4 8.8 2.15-1.3q.35.8.25 1.85l-.1.75-.95.45-1.3.6H3.9L4 8.8m3.4-2.05L9.25 5.6l.35 1.15q.3 1-.15 1.7l-1.85 1q.3-.95-.05-2.05l-.15-.65" fill="#ffd252" transform="translate(11.05 2.85)"/><path d="m6.15 7.5 1.25-.75.15.65q.35 1.1.05 2.05l-.75.4-.55.3v-.05l.1-.75q.1-1.05-.25-1.85" fill="#fff4d8" transform="translate(11.05 2.85)"/><path d="m7.6 18.2.25-.7q.7-1.3 2.35-1.5-2.15.7-2.6 2.9v-.7m8.95-2h-.05l.75 1.15.05.2-.45-.6-1.55-1.35.7.25.55.35m-24.6-.75 10.85.7-5.3.4-5.55-1.1" fill="#b1b2b2" transform="translate(11.05 2.85)"/><path d="M-10.4 14.7v-.05h.05l3.8.45.35.05h.05l6.45.5 4.25.15 6.15-.3q.6-.5 1.25-.85.5-.35 1.05-.6l1.6.4.4.35 3.05-.95.3 1.1-.2.6-.05.05-1.55.6-.55-.35-.7-.25 1.55 1.35.45.6-.05-.2.25.45.35.95V19l-.25.95q-.95.7-2.1.5l-.75-.15q1.2-1.9-.4-3.5l-3.4.5-.2 1.65.8 2.4.1.15-.35.05-.4.1q-1.15-.35-1.95-1.1L7.5 19.1l.1-.9v.7q.45-2.2 2.6-2.9-1.65.2-2.35 1.5l-3.2.05-3.6-.05-3.9-.25-2.05-.15-2.2-.25-2.85-.6q-.7-.5-.65-1.2l.2-.35m21 1.4.05.3q.05.6.8.55l1.5-.3-1.3-.3-.45-.05-.6-.2m-18.65-.65 5.55 1.1 5.3-.4-10.85-.7" transform="translate(11.05 2.85)"/><path d="m10.6 16.1.6.2.45.05 1.3.3-1.5.3q-.75.05-.8-.55l-.05-.3" fill="#8d8e8e" transform="translate(11.05 2.85)"/><path d="M1.1 13.6q.65-.2.75.35l-.1.25q-1.55.7-3.25.65l-2.2.05q2.1-.95 4.8-1.3m-5.9 5.65h2.15l.5.1 2.5.65h-3.3l-.15.9.65.75H-4.1l-.7-2.4" fill="#ff9e5c" transform="translate(11.05 2.85)"/></g></defs></svg>

<?xml version="1.0" encoding="UTF-8" standalone="no"?>
<svg xmlns:xlink="http://www.w3.org/1999/xlink" height="82.0px" width="84.85px" xmlns="http://www.w3.org/2000/svg">
  <g transform="matrix(1.0, 0.0, 0.0, 1.0, 37.4, 42.25)">
    <use height="38.0" transform="matrix(1.0, 0.0, 0.0, 1.0, -11.95, -17.45)" width="32.05" xlink:href="#sprite0"/>
    <use height="38.95" transform="matrix(1.0, 0.0, 0.0, 1.0, -12.45, -17.95)" width="33.05" xlink:href="#sprite1"/>
    <use height="26.5" transform="matrix(1.0, 0.0, 0.0, 1.0, -11.05, -2.85)" width="36.1" xlink:href="#shape2"/>
  </g>
  <defs>
    <g id="sprite0" transform="matrix(1.0, 0.0, 0.0, 1.0, -0.05, 0.0)">
      <use height="38.0" transform="matrix(1.0, 0.0, 0.0, 1.0, 0.05, 0.0)" width="32.05" xlink:href="#shape0"/>
    </g>
    <g id="shape0" transform="matrix(1.0, 0.0, 0.0, 1.0, -0.05, 0.0)">
      <path d="M27.35 7.4 Q29.5 11.55 30.9 16.15 32.35 20.85 32.05 25.65 31.7 30.6 27.85 33.75 24.05 36.95 19.1 37.8 L16.5 38.0 Q12.9 38.0 9.45 36.85 4.8 35.25 2.35 31.35 -0.2 27.4 0.05 23.0 0.25 18.6 2.05 13.7 3.85 8.75 7.0 5.05 10.1 1.3 14.7 0.1 L16.5 0.0 Q18.4 0.05 20.2 0.8 24.95 2.85 27.35 7.4" fill="#f5ad6c" fill-rule="evenodd" stroke="none"/>
    </g>
    <g id="sprite1" transform="matrix(1.0, 0.0, 0.0, 1.0, 0.45, 0.5)">
      <use height="38.95" transform="matrix(1.0, 0.0, 0.0, 1.0, -0.45, -0.5)" width="33.05" xlink:href="#shape1"/>
    </g>
    <g id="shape1" transform="matrix(1.0, 0.0, 0.0, 1.0, 0.45, 0.5)">
      <path d="M27.35 7.4 Q24.95 2.85 20.2 0.8 17.55 -0.3 14.7 0.1 10.1 1.3 7.0 5.05 3.85 8.75 2.05 13.7 0.25 18.6 0.05 23.0 -0.2 27.4 2.35 31.35 4.8 35.25 9.45 36.85 14.1 38.4 19.1 37.8 24.05 36.95 27.85 33.75 31.7 30.6 32.05 25.65 32.35 20.85 30.9 16.15 29.5 11.55 27.35 7.4 Z" fill="none" stroke="#170001" stroke-linecap="round" stroke-linejoin="round" stroke-width="1.0"/>
    </g>
    <g id="shape2" transform="matrix(1.0, 0.0, 0.0, 1.0, 11.05, 2.85)">
      <path d="M-0.8 13.5 L8.55 10.35 9.45 11.0 9.1 11.6 8.3 12.5 Q7.1 13.7 5.5 14.25 L4.7 13.85 Q4.3 14.45 3.55 14.6 2.55 14.75 1.75 14.2 L1.85 13.95 Q1.75 13.4 1.1 13.6 L-0.8 13.5" fill="#f5ad6c" fill-rule="evenodd" stroke="none"/>
      <path d="M24.45 14.95 L25.05 14.85 25.05 15.3 Q25.1 17.0 24.15 18.5 23.15 20.05 21.15 20.15 L19.15 19.85 18.55 19.1 Q18.6 20.2 17.9 21.15 L17.45 21.85 17.0 22.0 16.95 22.0 16.3 22.35 13.0 22.9 9.15 23.35 5.2 23.6 3.15 23.65 -0.8 23.5 -3.9 23.3 -7.25 22.65 Q-8.3 22.55 -9.0 21.9 -10.15 20.9 -10.25 19.3 L-10.3 16.8 -10.85 16.45 Q-11.2 15.65 -10.9 14.85 L-10.4 14.7 -10.6 15.05 Q-10.65 15.75 -9.95 16.25 L-9.6 17.95 -9.0 20.05 -8.2 21.4 Q-7.05 22.65 -5.25 22.25 L-3.25 22.55 -1.25 22.7 0.85 22.9 4.5 22.8 7.4 22.75 10.15 22.55 14.0 21.95 Q15.5 21.95 16.55 21.4 17.6 20.8 17.6 19.95 L17.85 19.0 18.15 15.9 18.15 15.55 18.75 17.8 Q18.95 18.55 19.5 18.95 L21.95 19.45 23.25 18.4 Q24.15 17.05 24.5 15.45 L23.9 16.55 23.9 16.45 24.45 14.95" fill="#170a00" fill-rule="evenodd" stroke="none"/>
      <path d="M23.55 16.9 L23.9 16.45 23.9 16.55 23.55 16.9" fill="#471f01" fill-rule="evenodd" stroke="none"/>
      <path d="M19.35 16.3 Q19.35 16.9 19.95 17.35 20.55 17.8 21.4 17.8 L22.9 17.3 23.55 16.9 23.9 16.55 24.5 15.45 Q24.15 17.05 23.25 18.4 L21.95 19.45 19.5 18.95 Q18.95 18.55 18.75 17.8 L18.15 15.55 18.35 14.95 19.35 16.3" fill="#ff6a00" fill-rule="evenodd" stroke="none"/>
      <path d="M-6.95 18.35 L-6.0 19.0 -7.15 19.1 -6.95 18.35" fill="#ff6c03" fill-rule="evenodd" stroke="none"/>
      <path d="M-6.15 15.15 L-0.8 13.5 1.1 13.6 Q-1.6 13.95 -3.7 14.9 L-1.5 14.85 Q0.2 14.9 1.75 14.2 2.55 14.75 3.55 14.6 4.3 14.45 4.7 13.85 L5.5 14.25 4.25 14.75 Q2.0 15.5 0.0 15.3 L0.3 15.65 -6.15 15.15 M-6.2 15.15 L-6.55 15.1 -5.15 14.65 -6.2 15.15 M-4.85 18.5 L-1.0 18.8 -3.95 18.95 -4.85 18.5" fill="#ff6b01" fill-rule="evenodd" stroke="none"/>
      <path d="M18.15 15.55 L18.15 15.9 18.1 15.6 18.15 15.55 M14.0 21.95 L10.15 22.55 7.4 22.75 4.5 22.8 0.85 22.9 -1.25 22.7 -3.25 22.55 -5.25 22.25 -6.0 21.9 Q-7.7 21.0 -7.15 19.1 L-6.0 19.0 -6.95 18.35 -4.85 18.5 -3.95 18.95 -1.0 18.8 6.35 19.1 7.45 20.6 Q8.85 22.15 10.9 21.65 L11.3 21.55 11.65 21.5 11.7 21.45 11.55 21.35 10.75 18.95 11.95 18.8 Q12.75 20.45 11.9 22.2 L14.0 21.95 M-4.8 19.25 L-4.1 21.65 -2.45 21.65 -3.1 20.9 -2.95 20.0 0.35 20.0 -2.15 19.35 -2.65 19.25 -4.8 19.25" fill="#fc6900" fill-rule="evenodd" stroke="none"/>
      <path d="M19.1 -2.0 L18.95 -2.75 20.2 -2.85 20.85 -0.1 21.2 1.15 24.45 8.95 Q24.95 10.2 25.0 11.6 L25.05 14.85 24.45 14.95 Q24.9 13.25 24.55 11.6 L23.65 7.8 23.4 7.25 23.65 7.8 24.55 11.6 Q24.9 13.25 24.45 14.95 L23.9 16.45 23.55 16.9 22.9 17.3 21.4 17.8 20.95 17.65 Q19.85 17.25 19.35 16.3 L18.35 14.95 18.05 13.85 15.0 14.8 14.6 14.45 13.0 14.05 Q12.45 14.3 11.95 14.65 11.3 15.0 10.7 15.5 L4.55 15.8 0.3 15.65 0.0 15.3 Q2.0 15.5 4.25 14.75 L5.5 14.25 Q7.1 13.7 8.3 12.5 L9.1 11.6 9.45 11.0 8.55 10.35 -0.8 13.5 -6.15 15.15 -4.95 14.6 -1.9 13.5 1.2 12.35 4.05 11.15 5.35 10.55 6.3 10.15 6.85 9.85 8.95 8.85 10.85 7.85 12.65 6.85 15.8 4.65 18.4 2.45 20.3 0.6 20.25 -0.2 19.75 -2.05 19.75 -2.25 19.1 -2.0 M20.9 2.7 Q20.45 1.7 20.3 0.6 20.45 1.7 20.9 2.7 L20.55 2.1 19.8 2.9 18.6 4.8 21.15 3.25 21.2 3.2 20.9 2.7 M22.45 5.45 Q21.35 4.25 19.9 5.05 18.2 6.0 18.05 7.75 17.95 8.85 18.15 10.0 L18.65 11.95 Q19.05 13.1 20.0 14.05 L20.95 15.05 21.15 15.15 21.55 15.2 21.9 14.95 22.15 14.85 Q22.8 13.9 23.05 12.8 L23.7 10.05 Q24.0 8.5 23.4 7.25 L22.45 5.45 21.7 4.15 21.15 3.25 21.7 4.15 22.45 5.45 23.4 7.25 Q24.0 8.5 23.7 10.05 L23.05 12.8 Q22.8 13.9 22.15 14.85 L21.9 14.95 21.55 15.2 21.15 15.15 20.95 15.05 20.0 14.05 Q19.05 13.1 18.65 11.95 L18.15 10.0 Q17.95 8.85 18.05 7.75 18.2 6.0 19.9 5.05 21.35 4.25 22.45 5.45 M18.15 15.9 L17.85 19.0 17.85 18.75 17.5 17.8 17.25 17.35 16.5 16.2 16.55 16.2 18.1 15.6 18.15 15.9 M17.6 19.95 Q17.6 20.8 16.55 21.4 15.5 21.95 14.0 21.95 L11.9 22.2 Q12.75 20.45 11.95 18.8 L10.75 18.95 10.95 17.3 14.35 16.8 Q15.95 18.4 14.75 20.3 L15.5 20.45 Q16.65 20.65 17.6 19.95 M-5.25 22.25 Q-7.05 22.65 -8.2 21.4 L-9.0 20.05 -9.6 17.95 -9.95 16.25 -7.1 16.85 -4.9 17.1 -2.85 17.25 1.05 17.5 4.65 17.55 7.85 17.5 7.6 18.2 7.5 19.1 8.95 20.55 Q9.75 21.3 10.9 21.65 8.85 22.15 7.45 20.6 L6.35 19.1 -1.0 18.8 -4.85 18.5 -6.95 18.35 -7.15 19.1 Q-7.7 21.0 -6.0 21.9 L-5.25 22.25 M13.5 11.7 L13.2 12.9 12.8 13.55 15.95 13.75 16.85 6.4 13.3 8.9 13.5 11.7 M11.55 21.35 L11.7 21.45 11.65 21.5 11.55 21.35" fill="#bc4e00" fill-rule="evenodd" stroke="none"/>
      <path d="M19.35 16.3 Q19.85 17.25 20.95 17.65 L21.4 17.8 Q20.55 17.8 19.95 17.35 19.35 16.9 19.35 16.3" fill="#bc5908" fill-rule="evenodd" stroke="none"/>
      <path d="M19.75 -2.05 L20.25 -0.2 20.3 0.6 18.4 2.45 15.8 4.65 12.65 6.85 10.85 7.85 8.95 8.85 6.85 9.85 7.6 9.45 9.45 8.45 Q9.9 7.75 9.6 6.75 L9.25 5.6 10.5 4.85 12.95 3.15 15.45 1.35 17.95 -0.6 19.75 -2.05 M-5.6 13.1 L-4.9 12.85 -2.45 11.9 0.7 10.4 4.0 8.8 3.9 11.15 4.05 11.15 1.2 12.35 -1.9 13.5 -4.95 14.6 -5.15 14.65 -6.55 15.1 -10.35 14.65 -10.3 14.65 -7.65 13.85 -5.6 13.1 M17.05 3.35 L16.6 1.8 13.2 4.35 12.9 6.35 14.0 5.75 Q15.75 4.8 17.05 3.35 M6.3 10.1 L6.3 10.15 5.35 10.55 6.3 10.1" fill="#e3ab00" fill-rule="evenodd" stroke="none"/>
      <path d="M19.1 -2.0 L19.75 -2.25 19.75 -2.05 17.95 -0.6 15.45 1.35 12.95 3.15 10.5 4.85 9.25 5.6 7.4 6.75 6.15 7.5 4.0 8.8 0.7 10.4 -2.45 11.9 -4.9 12.85 -5.6 13.1 -6.35 13.35 -3.9 12.35 -1.3 11.05 1.5 9.45 4.6 7.7 7.95 5.7 9.7 4.6 11.45 3.45 13.3 2.2 15.2 0.85 17.15 -0.5 19.1 -2.0" fill="#705103" fill-rule="evenodd" stroke="none"/>
      <path d="M20.9 2.7 L21.2 3.2 21.15 3.25 18.6 4.8 19.8 2.9 20.55 2.1 20.9 2.7" fill="#f67800" fill-rule="evenodd" stroke="none"/>
      <path d="M17.05 3.35 Q15.75 4.8 14.0 5.75 L12.9 6.35 13.2 4.35 16.6 1.8 17.05 3.35" fill="#ad7204" fill-rule="evenodd" stroke="none"/>
      <path d="M13.5 11.7 L13.3 8.9 16.85 6.4 15.95 13.75 12.8 13.55 13.2 12.9 13.5 11.7" fill="#783200" fill-rule="evenodd" stroke="none"/>
      <path d="M4.0 8.8 L6.15 7.5 Q6.5 8.3 6.4 9.35 L6.3 10.1 5.35 10.55 4.05 11.15 3.9 11.15 4.0 8.8 M7.4 6.75 L9.25 5.6 9.6 6.75 Q9.9 7.75 9.45 8.45 L7.6 9.45 Q7.9 8.5 7.55 7.4 L7.4 6.75" fill="#ffd252" fill-rule="evenodd" stroke="none"/>
      <path d="M6.15 7.5 L7.4 6.75 7.55 7.4 Q7.9 8.5 7.6 9.45 L6.85 9.85 6.3 10.15 6.3 10.1 6.4 9.35 Q6.5 8.3 6.15 7.5" fill="#fff4d8" fill-rule="evenodd" stroke="none"/>
      <path d="M7.6 18.2 L7.85 17.5 Q8.55 16.2 10.2 16.0 8.05 16.7 7.6 18.9 L7.6 18.2 M16.55 16.2 L16.5 16.2 17.25 17.35 17.3 17.55 16.85 16.95 15.3 15.6 16.0 15.85 16.55 16.2 M-8.05 15.45 L2.8 16.15 -2.5 16.55 -8.05 15.45" fill="#b1b2b2" fill-rule="evenodd" stroke="none"/>
      <path d="M-10.4 14.7 L-10.4 14.65 -10.35 14.65 -6.55 15.1 -6.2 15.15 -6.15 15.15 0.3 15.65 4.55 15.8 10.7 15.5 Q11.3 15.0 11.95 14.65 12.45 14.3 13.0 14.05 L14.6 14.45 15.0 14.8 18.05 13.85 18.35 14.95 18.15 15.55 18.1 15.6 16.55 16.2 16.0 15.85 15.3 15.6 16.85 16.95 17.3 17.55 17.25 17.35 17.5 17.8 17.85 18.75 17.85 19.0 17.6 19.95 Q16.65 20.65 15.5 20.45 L14.75 20.3 Q15.95 18.4 14.35 16.8 L10.95 17.3 10.75 18.95 11.55 21.35 11.65 21.5 11.3 21.55 10.9 21.65 Q9.75 21.3 8.95 20.55 L7.5 19.1 7.6 18.2 7.6 18.9 Q8.05 16.7 10.2 16.0 8.55 16.2 7.85 17.5 L4.65 17.55 1.05 17.5 -2.85 17.25 -4.9 17.1 -7.1 16.85 -9.95 16.25 Q-10.65 15.75 -10.6 15.05 L-10.4 14.7 M10.6 16.1 L10.65 16.4 Q10.7 17.0 11.45 16.95 L12.95 16.65 11.65 16.35 11.2 16.3 10.6 16.1 M-8.05 15.45 L-2.5 16.55 2.8 16.15 -8.05 15.45" fill="#000000" fill-rule="evenodd" stroke="none"/>
      <path d="M10.6 16.1 L11.2 16.3 11.65 16.35 12.95 16.65 11.45 16.95 Q10.7 17.0 10.65 16.4 L10.6 16.1" fill="#8d8e8e" fill-rule="evenodd" stroke="none"/>
      <path d="M1.1 13.6 Q1.75 13.4 1.85 13.95 L1.75 14.2 Q0.2 14.9 -1.5 14.85 L-3.7 14.9 Q-1.6 13.95 1.1 13.6 M-4.8 19.25 L-2.65 19.25 -2.15 19.35 0.35 20.0 -2.95 20.0 -3.1 20.9 -2.45 21.65 -4.1 21.65 -4.8 19.25" fill="#ff9e5c" fill-rule="evenodd" stroke="none"/>
    </g>
  </defs>
</svg>
